X:18948
T:Xiraldilla (CT 017)
R:Xiraldilla
C:Tradicional
S:Música Tradicional Asturiana, (C) Tello & Tito. Asturies, 2001.
S:http://pagina.de/MusTradAst <telloytito@asturies.org>
N:Xiraldilla, transcrita en Tinéu.
O:Tinéu
A:Asturies
Z:Cancioneru de Torner 017
M:2/4
L:1/8
Q:1/4=132
W:Anda diciendo tu madre
W:que tienes un naranxal
W:y el naranxal que tú tienes
W:ye que te quieres casar.
K:C
dd|dc dc|BB dd|dc dc|B2 cc|cA BA|GG Bc|d3 B|c3 A|G4-|G2||


